!!!!SEGMENT: pl-kk--kk-i-423--001-007_golabek-jakub--missa-1a-agnus-dei.krn
!!!cenid: 17xx:2557
!!!COM: Gołąbek, Jakub
!!!COM-rismID: pe30008748
!!!CDT: 1739-1789/03/30
!!!CNT: Polish
!!!OPR: Missa 1a
!!!OTL: Agnus Dei
!!!OMV: 007
!!!PDT:
!!!AGN: Sacred; Mass
!!!YEC: Copyright 2022 Narodowy Instytut Fryderyka Chopina (https://polishscores.org)
!!!YEM: License CC-BY-4.0 (https://creativecommons.org/licenses/by/4.0)
!!!SMS-siglum: PL-Kk
!!!SMS-shelfmark: Kk.I.423
!!!SMS-variant:
!!!SMS-altvar:
!!!SMS-shelfwork: 001-007 M
!!!NIFC-rismSourceID: 1001147334
!!!NIFC-rismChildID: 1001147336
!!!NIFC-islandoraID:
!!!URL-pdf-islandora: https://repozytorium.nifc.pl/islandora/object/pl-kk%3A10566/datastream/PDF/view
!!!URL-scan: https://polish.musicsources.pl/pl/lokalizacje/galeria/rekopisy/6034-masses/3 @EN{Scan on Polish Music Sources Website} @PL{Skany w portalu Dziedzictwo Muzyki Polskiej w otwartym dostępie}
!!!IIIF:
!!!ONB-nifc: UWAGA: C – skan 3-4, A – 7-8, T – 11-12, B – 15-16. Części Mszy: Kyrie, Christe, Et in terra, Quoniam, Sanctus (+Osanna), Benedictus, Agnus Dei.
!!!AIN: 1 alto 1 bass 1 canto 1 tenor
!!!key:
**kern	**text	**dynam	**kern	**text	**dynam	**kern	**text	**dynam	**kern	**text	**dynam
*part4	*part4	*part4	*part3	*part3	*part3	*part2	*part2	*part2	*part1	*part1	*part1
*staff4	*staff4	*	*staff3	*staff3	*	*staff2	*staff2	*	*staff1	*staff1	*
*I"Basso	*	*	*I"Tenore	*	*	*I"Alto	*	*	*I"Canto	*	*
*I'B.	*	*	*I'T.	*	*	*I'A.	*	*	*I'C.	*	*
*Ibass	*	*	*Itenor	*	*	*Ialto	*	*	*Icanto	*	*
*ICvox	*	*	*ICvox	*	*	*ICvox	*	*	*ICvox	*	*
*clefF4	*	*	*clefC4	*	*	*clefC3	*	*	*clefC1	*	*
*k[]	*	*	*k[]	*	*	*k[]	*	*	*k[]	*	*
*C:	*	*	*C:	*	*	*C:	*	*	*C:	*	*
*M2/2	*	*	*M2/2	*	*	*M2/2	*	*	*M2/2	*	*
*met(c|)	*	*	*met(c|)	*	*	*met(c|)	*	*	*met(c|)	*	*
=1	=1	=1	=1	=1	=1	=1	=1	=1	=1	=1	=1
*	*	*	*2\right	*	*	*2\right	*	*	*2\right	*	*
4C\	a-	.	2e\	A-	.	2g\	A-	.	2cc\	A-	.
4E\	.	.	.	.	.	.	.	.	.	.	.
4G\	.	.	8e\L	.	.	8g\L	.	.	4b\	.	.
.	.	.	8f\J	.	.	8a\J	.	.	.	.	.
4GG/	-gnus	.	8e\L	-gnus	.	8g\L	-gnus	.	4b\	-gnus	.
.	.	.	8d\J	.	.	8f\J	.	.	.	.	.
=2	=2	=2	=2	=2	=2	=2	=2	=2	=2	=2	=2
4GG/	De-	.	4d\	De-	.	4f\	De-	.	4b\	De-	.
4C/	-i	.	4c\	-i	.	4e\	-i	.	4g\	-i	.
4r	.	.	4r	.	.	4r	.	.	4r	.	.
4C/	qui-	.	4c\	qui-	.	4e\	qui-	.	4g\	qui-	.
=3	=3	=3	=3	=3	=3	=3	=3	=3	=3	=3	=3
4G\	-tol-	.	4B\	-tol-	.	4d\	-tol-	.	4g\	-tol-	.
8G\	-lis	.	8B\	-lis	.	8d\	-lis	.	8g\	-lis	.
8G\	pec-	.	8c\	pec-	.	8e\	pec-	.	8g\	pec-	.
4G\	-ca-	.	8e\L	-ca-	.	8g\L	-ca-	.	8cc\L	-ca-	.
.	.	.	8d\J	.	.	8f\J	.	.	8b\J	.	.
4G\	-ta	.	8c\L	-ta	.	8e\L	-ta	.	4g\	-ta	.
.	.	.	8B\J	.	.	8d\J	.	.	.	.	.
=4	=4	=4	=4	=4	=4	=4	=4	=4	=4	=4	=4
4c\	mun-	.	8c\L	Mun-	.	8e\L	mun-	.	4g\	Mun-	.
.	.	.	8d\	.	.	8f\	.	.	.	.	.
4G\	.	.	8e\	.	.	8g\	.	.	4b\	.	.
.	.	.	8f\J	.	.	8a\J	.	.	.	.	.
4C/	-di	.	4e\	-di	.	4g\	-di	.	4g\	-di	.
4r	.	.	4r	.	.	4r	.	.	4r	.	.
=5	=5	=5	=5	=5	=5	=5	=5	=5	=5	=5	=5
!	!	!LO:DY:a	!	!	!LO:DY:a	!	!	!LO:DY:a	!	!	!LO:DY:a
4C\	A-	p	2e\	A-	p	2g\	A-	p	2cc\	A-	p
4E\	.	.	.	.	.	.	.	.	.	.	.
4G\	.	.	8e\L	.	.	8g\L	.	.	4b\	.	.
.	.	.	8f\J	.	.	8a\J	.	.	.	.	.
4GG/	-gnus	.	8e\L	-gnus	.	8g\L	-gnus	.	4b\	-gnus	.
.	.	.	8d\J	.	.	8f\J	.	.	.	.	.
=6	=6	=6	=6	=6	=6	=6	=6	=6	=6	=6	=6
4GG/	De-	.	4d\	De-	.	4f\	De-	.	4b\	De-	.
4C/	-i	.	4c\	-i	.	4e\	-i	.	4g\	-i	.
!LO:LB:g=original	!	!	!LO:LB:g=original	!	!	!	!	!	!	!	!
4r	.	.	4r	.	.	4r	.	.	4r	.	.
4C/	qui-	.	4c\	qui-	.	4e\	qui-	.	4g\	qui-	.
!	!	!	!	!	!	!LO:LB:g=original	!	!	!LO:LB:g=original	!	!
=7	=7	=7	=7	=7	=7	=7	=7	=7	=7	=7	=7
4G\	-tol-	.	4B\	-tol-	.	4d\	-tol-	.	4g\	-tol-	.
8G\	-lis	.	8B\	-lis	.	8d\	-lis	.	8g\	-lis	.
8G\	pec-	.	8c\	pec-	.	8e\	pec-	.	8g\	pec-	.
4G\	-ca-	.	8e\L	-ca-	.	8g\L	-ca-	.	8cc\L	-ca-	.
.	.	.	8d\J	.	.	8f\J	.	.	8b\J	.	.
4G\	-ta	.	8c\L	-ta	.	8e\L	-ta	.	4g\	-ta	.
.	.	.	8B\J	.	.	8d\J	.	.	.	.	.
=8	=8	=8	=8	=8	=8	=8	=8	=8	=8	=8	=8
4c\	Mun-	.	8c\L	Mun-	.	8e\L	mun-	.	4g\	Mun-	.
.	.	.	8d\	.	.	8f\	.	.	.	.	.
4G\	.	.	8e\	.	.	8g\	.	.	4b\	.	.
.	.	.	8f\J	.	.	8a\J	.	.	.	.	.
4C/	-di	.	4e\	-di	.	4g\	-di	.	4g\	-di	.
4r	.	.	4r	.	.	4r	.	.	4r	.	.
=9	=9	=9	=9	=9	=9	=9	=9	=9	=9	=9	=9
!	!	!LO:DY:a	!	!	!LO:DY:a	!	!	!	!	!	!
2C/	Mi-	f	4e\	Mi-	f	4a\	mi-	.	2.cc\	Mi-	.
.	.	.	4c\	.	.	4e\	.	.	.	.	.
4E\	.	.	4G/	-se-	.	4c/	.	.	.	.	.
4C/	-se-	.	4G/	.	.	4B-X/	-se-	.	4cc\	-se-	.
=10	=10	=10	=10	=10	=10	=10	=10	=10	=10	=10	=10
2.F\	-re-	.	4F/	-re-	.	4A/	-re-	.	2.cc\	-re-	.
.	.	.	4f\	.	.	4a\	.	.	.	.	.
.	.	.	8e\L	.	.	8g\L	.	.	.	.	.
.	.	.	8d\J	.	.	8f\J	.	.	.	.	.
4F#X\	-re	.	4c\	-re	.	8e\L	-re	.	4a\	-re	.
.	.	.	.	.	.	8d\J	.	.	.	.	.
=11	=11	=11	=11	=11	=11	=11	=11	=11	=11	=11	=11
2G\	no-	.	2e\	no-	.	2c/	no-	.	2g/	no-	.
2GG/	-bis	.	2d\	-bis	.	2B/	-bis	.	2g/	-bis	.
=12	=12	=12	=12	=12	=12	=12	=12	=12	=12	=12	=12
2G\	Mi-	.	2c\	mi-	.	2g\	mi-	.	2dd\	mi-	.
2A\	-se-	.	2d\	-se-	.	2f#X\	-se-	.	2cc\	-se-	.
!	!	!	!LO:LB:g=original	!	!	!	!	!	!	!	!
=13	=13	=13	=13	=13	=13	=13	=13	=13	=13	=13	=13
2B\	-re-	.	2d\	-re-	.	2fn\	-re-	.	2g/	-re-	.
2c\	-re	.	2c\	-re	.	2e\	-re	.	2g/	-re	.
!LO:LB:g=original	!	!	!	!	!	!LO:PB:g=original	!	!	!	!	!
=14	=14	=14	=14	=14	=14	=14	=14	=14	=14	=14	=14
4G\	no-	.	2B\	no-	.	2d\	no-	.	1g	no-	.
4F\	.	.	.	.	.	.	.	.	.	.	.
4E\	.	.	2c\	.	.	2e\	.	.	.	.	.
4F\	.	.	.	.	.	.	.	.	.	.	.
=15	=15	=15	=15	=15	=15	=15	=15	=15	=15	=15	=15
2G\	.	.	2c\	.	.	2e\	.	.	1g	.	.
2GG/	.	.	2B\	.	.	2d\	.	.	.	.	.
!	!	!	!	!	!	!	!	!	!LO:LB:g=original	!	!
=16	=16	=16	=16	=16	=16	=16	=16	=16	=16	=16	=16
1C	-bis	.	1c	-bis	.	2e\	-bis	.	1g	-bis	.
.	.	.	.	.	.	2r	.	.	.	.	.
=17||	=17||	=17||	=17||	=17||	=17||	=17||	=17||	=17||	=17||	=17||	=17||
*clefF4	*	*	*clefC4	*	*	*clefC3	*	*	*	*	*
*M2/2	*	*	*M2/2	*	*	*M2/2	*	*	*	*	*
*met(c|)	*	*	*met(c|)	*	*	*met(c|)	*	*	*	*	*
4C/	A-	.	2.c\	A-	.	4e\	A-	.	2.g/	A-	.
4D/	.	.	.	.	.	4f\	.	.	.	.	.
8qqF/	.	.	.	.	.	8qa/	.	.	.	.	.
4E/	.	.	.	.	.	4g\	.	.	.	.	.
8D/L	-gnus	.	4c\	-gnus	.	8f\L	-gnus	.	4g/	-gnus	.
8C/J	.	.	.	.	.	8e\J	.	.	.	.	.
=18	=18	=18	=18	=18	=18	=18	=18	=18	=18	=18	=18
4G\	De-	.	4B\	De-	.	2g\	De-	.	2dd\	De-	.
4A\	.	.	4c\	.	.	.	.	.	.	.	.
8qqc/	.	.	8qqe/	.	.	.	.	.	.	.	.
4B\	-i	.	4d\	-i	.	4g\	-i	.	4dd\	-i	.
8A\L	qui-	.	8c\L	qui-	.	4g\	qui-	.	4b\	qui-	.
8G\J	.	.	8B\J	.	.	.	.	.	.	.	.
=19	=19	=19	=19	=19	=19	=19	=19	=19	=19	=19	=19
4c\	-tol-	.	2e\	-tol-	.	2g\	-tol-	.	2cc\	-tol-	.
8G\L	.	.	.	.	.	.	.	.	.	.	.
8E\J	.	.	.	.	.	.	.	.	.	.	.
!LO:LB:g=original	!	!	!	!	!	!	!	!	!	!	!
4C/	-lis	.	4e\	-lis	.	4g\	-lis	.	4cc\	-lis	.
4C/	pec-	.	4e\	pec-	.	4g\	pec-	.	4cc\	pec-	.
!	!	!	!LO:LB:g=original	!	!	!LO:LB:g=original	!	!	!	!	!
=20	=20	=20	=20	=20	=20	=20	=20	=20	=20	=20	=20
4BB/	-ca-	.	4d\	-ca-	.	4g\	-ca-	.	4dd\	-ca-	.
4C/	-ta	.	4e\	-ta	.	4g\	-ta	.	4cc\	-ta	.
4D/	.	.	2f\	mun-	.	2g\	Mun-	.	4b\	mun-	.
4GG/	mun-	.	.	.	.	.	.	.	4dd\	-di	.
=21	=21	=21	=21	=21	=21	=21	=21	=21	=21	=21	=21
2C/	-di	.	2e\	-di	.	2g\	-di	.	2cc\	.	.
4r	.	.	4r	.	.	4r	.	.	4r	.	.
4C/	qui-	.	4e\	qui-	.	4g\	qui-	.	4cc\	qui-	.
=22	=22	=22	=22	=22	=22	=22	=22	=22	=22	=22	=22
2F#X\	-tol-	.	2d\	-tol-	.	2a\	-tol-	.	2cc\	-tol-	.
4G\	-lis	.	4d\	-lis	.	4g\	-lis	.	4b\	-lis	.
4G\	pec-	.	4d\	pec-	.	4g\	pec-	.	4b\	pec-	.
!	!	!	!	!	!	!	!	!	!LO:LB:g=original	!	!
=23	=23	=23	=23	=23	=23	=23	=23	=23	=23	=23	=23
4F\	-ca-	.	4d\	-ca-	.	4a\	-ca-	.	4cc\	-ca-	.
4G\	-ta	.	4d\	-ta	.	4g\	-ta	.	4b\	-ta	.
2F\	mun-	.	2d\	mun-	.	2a\	Mun-	.	2cc\	mun-	.
=24	=24	=24	=24	=24	=24	=24	=24	=24	=24	=24	=24
!LO:TX:a:t=Dona ut Kyrie	!	!	!LO:TX:a:t=Dona ut Kyrie	!	!	!LO:TX:a:t=Dona nobis ut Kyrie	!	!	!LO:TX:a:t=Dona nobis ut Kyrie	!	!
1G	-di	.	1d	-di	.	1g	-di	.	1b	-di	.
==	==	==	==	==	==	==	==	==	==	==	==
*-	*-	*-	*-	*-	*-	*-	*-	*-	*-	*-	*-
!!!system-decoration: [(s1,s2,s3,s4)]
!!!ENC: Berenika Jozajtis
!!!END: 2024-02-11
!!!ENC: Leszek Kubiak
!!!END: 2024-08-04
